X: 071854
T: Gloria's Travels
S: "Passing Time" (Jim & Mary Coogan & friends)
C: Mary Coogan
N: "dedicated with love to Aunt Loretta"
L: 1/8
M: 4/4
Q: 350
R: reel
K: Bm
fgfe dBBc | dcBA FB B2 | BABc dfbf | afef dB B2 |
fgfe dBBc | dcBA FB B2 | BABc dfec | efdc B4 ||
cBcd ecAc | dBcA BAFA | BABc dfbf | afef dB B2 |
cBcd ecAc | dBcA BAFA | BABc dfec | efdc B4 |]
